X: 11271
T: Love is the Cause of my Mourning
%R: air, minuet, waltz
B: James Oswald "The Caledonian Pocket Companion" v.1 b.1 p.27 #1
Z: 2020 John Chambers <jc:trillian.mit.edu>
M: 3/4
L: 1/16
K: G
[|\
G3A B4 (Bcd2) | {c}B6 A2 (BAG2) | g6 a2 (gab2) | B8 (GABd) |\
e4 (efg2) (edcB) | d3e d2(cB) {B}A2G2 | b2a2{a}g2e2{e}d2B2 | A2(Bc) {B}A2G2 E4 |
G3A B4 (Bcd2) | {c}B6 A2 (BAG2) | g4 a4 (gab2) | B8 (e2d2) |\
B4 {d}c2B2{B}A2G2 | A6 G2A2B2 | d4 B2d2A2d2 | B8 e2d2 |
(B2d2B2)A2G2B2 | (A2G2A2)B2d2e2 | d4 B4 A2d2 | TB6 A2 G4 |]|\
g4 (g2a2)(b2a2) | (g3a) (g2e2) d4 | (e2d2e2)g2a2g2 | e3ge2d2 B4 |
B2c2 d2(ef) g2(ab) | d4 {d}c2B2 {B}A2G2 | g2(ab) (ag)(fe) d2(cB) | A2Bc {B}A2G2 E4 |\
g2a2 b4 (bc')d'2 | Tb6 a2 (ba)g2 | g6 a2 (ga)b2 | B8 (e2d2) |
B3(c/d/) c2B2A2G2 | A6 G2A2B2 | d4 (B3d)(A3d) | B8 e2d2 |\
B3dB3AG3B | A3GA3Bd3e | d4 B4 (A3d) | TB6 A2 G4 |]
